icon-themes/breeze_svg/cmd/sc_wrapleft.svg

<svg viewBox="0 0 16 16" xmlns="http://www.w3.org/2000/svg"><path d="m2 2v1h12v-1zm0 3v1h3v-1zm0 2v1h3v-1zm0 3v1h3v-1zm0 3v1h12v-1z" fill="#4d4d4d"/><path d="m6 4v8h8v-8z" fill="#1d99f3"/></svg>

<svg xmlns="http://www.w3.org/2000/svg" viewBox="0 0 16 16">
  <path
     style="fill:#4d4d4d"
     d="M 2,2 V 3 H 14 V 2 Z M 2,5 V 6 H 5 V 5 Z M 2,7 V 8 H 5 V 7 Z m 0,3 v 1 h 3 v -1 z m 0,3 v 1 h 12 v -1 z"
     />
  <path
     style="fill:#1d99f3"
     d="M 6 4 L 6 12 L 14 12 L 14 4 L 6 4 z "
     />
</svg>
